assets/features/channel/southeast-asia/touch-n-go.svg

<svg width="80" height="80" viewBox="0 0 80 80" fill="none" xmlns="http://www.w3.org/2000/svg">
<rect width="80" height="80" rx="8" fill="#0047BA"/>
<path d="M34.4241 41.1429H31.6336C30.8142 41.1429 29.7545 41.7271 29.4508 42.5036L29.7263 41.0146H26.3142L24.8094 49.5778H28.2215L29.1682 44.1564H32.8417C32.8417 44.1564 32.3755 46.8421 32.1635 48.0461C31.9587 49.25 32.764 49.5421 33.1666 49.5421H34.954L36.1196 42.8812C36.0066 41.9265 35.3708 41.1429 34.4241 41.1429Z" fill="white"/>
<path d="M23.8627 41.0146L23.2198 44.6907L25.8125 41.0146H23.8627Z" fill="white"/>
<path d="M27.9105 27.6001H16.4945L16 30.4355H19.9843L18.3878 39.5827H21.8282L23.4247 30.4355H27.4161L27.9105 27.6001Z" fill="#FFCD00"/>
<path d="M30.2698 36.7757L30.7714 33.9118H27.7124L27.2109 36.7757H30.2698ZM25.4519 39.5826C24.5053 39.5826 23.8695 38.7989 24.0319 37.8443L24.915 32.8361C25.0774 31.8815 25.9887 31.105 26.9354 31.105H32.5304C33.477 31.105 34.1128 31.8815 33.9433 32.8361L33.0672 37.8443C32.8977 38.7989 31.9864 39.5826 31.0398 39.5826H25.4519Z" fill="#FFCD00"/>
<path d="M47.9735 36.7757L48.4751 33.9118H52.9045L53.3989 31.105H47.698C46.7514 31.105 45.8401 31.8815 45.6705 32.8361L44.7945 37.8443C44.632 38.7989 45.2678 39.5826 46.2145 39.5826H51.76L52.2475 36.7757H47.9735Z" fill="#FFCD00"/>
<path d="M41.0083 36.7757H37.2571L38.2462 31.105H35.2579L34.0782 37.8443C33.9086 38.7989 34.5515 39.5826 35.4981 39.5826H38.4086C39.3553 39.5826 40.1253 39.0126 40.7399 38.2789C40.7399 38.2789 41.0719 39.262 41.5522 39.4828C42.0327 39.7037 43.495 39.6538 43.495 39.6538L44.9927 31.1121H42.0044L41.0083 36.7757Z" fill="#FFCD00"/>
<path d="M62.5548 31.1482H59.7644C58.9449 31.1482 58.1537 31.7323 57.8429 32.5089L58.6482 27.9067H55.5045L53.4629 39.583H56.6137L57.5603 34.1616H60.9724C60.9724 34.1616 60.5061 36.8474 60.2942 38.0514C60.0822 39.2482 60.8947 39.5403 61.2903 39.5403H62.8091L63.9747 32.8793C64.1372 31.9247 63.5014 31.1482 62.5548 31.1482Z" fill="#FFCD00"/>
<path d="M51.3503 52.4271C50.0787 52.4271 49.2168 51.3727 49.4429 50.0904L50.6227 43.3582C50.8417 42.0759 52.0708 41.0215 53.3495 41.0215H60.4704C61.742 41.0215 62.6038 42.0759 62.3778 43.3582L61.2051 50.0904C60.979 51.3727 59.7569 52.4271 58.4782 52.4271H51.3503ZM57.9837 49.2782L58.8809 44.1703H53.8299L52.9327 49.2782H57.9837Z" fill="#FFCD00"/>
<path d="M44.4413 49.2782H39.3902L40.2874 44.1703H48.475L49.012 41.0215H39.8C38.5283 41.0215 37.2992 42.0759 37.0802 43.3582L35.9004 50.0904C35.6814 51.3727 36.5362 52.4271 37.8078 52.4271H44.9288C46.2003 52.4271 47.4295 51.3727 47.6485 50.0904L48.3691 45.9585H45.0135L44.4413 49.2782Z" fill="#FFCD00"/>
</svg>

<svg xmlns="http://www.w3.org/2000/svg" width="80" height="80" fill="none" viewBox="0 0 80 80"><rect width="80" height="80" fill="#0047ba" rx="8"/><path fill="#fff" d="M34.424 41.143h-2.79c-.82 0-1.88.584-2.183 1.36l.275-1.488h-3.412l-1.505 8.563h3.412l.947-5.422h3.674s-.466 2.686-.678 3.89c-.205 1.204.6 1.496 1.003 1.496h1.787l1.166-6.66c-.113-.956-.75-1.74-1.696-1.74m-10.561-.127-.643 3.676 2.593-3.676z"/><path fill="#ffcd00" d="M27.91 27.6H16.495L16 30.435h3.984l-1.596 9.148h3.44l1.597-9.147h3.991z"/><path fill="#ffcd00" d="m30.27 36.776.501-2.864h-3.059l-.501 2.864zm-4.818 2.807c-.947 0-1.583-.784-1.42-1.739l.883-5.008c.162-.954 1.074-1.731 2.02-1.731h5.595c.947 0 1.583.776 1.413 1.731l-.876 5.008c-.17.955-1.08 1.739-2.027 1.739zm22.522-2.807.501-2.864h4.43l.494-2.807h-5.701c-.947 0-1.858.776-2.028 1.731l-.876 5.008c-.162.955.474 1.739 1.42 1.739h5.546l.488-2.807zm-6.966 0h-3.75l.988-5.671h-2.988l-1.18 6.74c-.17.954.473 1.738 1.42 1.738h2.91c.947 0 1.717-.57 2.332-1.304 0 0 .332.983.812 1.204s1.943.17 1.943.17l1.498-8.54h-2.989zm21.547-5.628h-2.79c-.82 0-1.611.584-1.922 1.36l.805-4.601h-3.144l-2.041 11.676h3.15l.947-5.421h3.412s-.466 2.685-.678 3.89c-.212 1.196.6 1.488.996 1.488h1.52l1.165-6.66c.162-.955-.474-1.732-1.42-1.732M51.35 52.427c-1.271 0-2.133-1.054-1.907-2.337l1.18-6.732c.219-1.282 1.448-2.336 2.727-2.336h7.12c1.272 0 2.134 1.054 1.908 2.336l-1.173 6.732c-.226 1.283-1.448 2.337-2.727 2.337zm6.634-3.149.897-5.108H53.83l-.897 5.108zm-13.543 0h-5.05l.896-5.108h8.188l.537-3.148H39.8c-1.272 0-2.5 1.054-2.72 2.336L35.9 50.09c-.219 1.283.636 2.337 1.908 2.337h7.12c1.272 0 2.502-1.054 2.72-2.337l.721-4.132h-3.355z"/></svg>
